X: 10860
T: Dripsey, The
R: polka
M: 2/4
K: Amajor
|:cf ec|Bc A2|EF AB|cB BA/B/|
cB/c/ ec|Bc A2|EF AB|cA A2:|
|:ce ec/e/|ae cA|Bc ae|cB BA/B/|
ce ec/e/|ae cA|f/a/f/e/ f/a/f/e/|cA AB:|

